X:8317
T:Julia McMahon's Jig
M:6/8
L:1/8
K:G
D|GAG GAB|dBd gfg|BAG GAB|cAG FGA|!
GAG GAB|dBd gfg|Bcd ecA|FEF G2:|!
|:d|gfg fed|ege dBd|gdB GAB|cAG FGA|!
gfg fef|def gfg|Bcd ecA|FEF G2:|!
